icons/evolvere-blue-folders-flat-vivid-dark-fallback/actions/64/system-suspend.svg

<?xml version="1.0" encoding="UTF-8" standalone="no"?>
<!-- Created with Inkscape (http://www.inkscape.org/) -->

<svg
   xmlns:dc="http://purl.org/dc/elements/1.1/"
   xmlns:cc="http://creativecommons.org/ns#"
   xmlns:rdf="http://www.w3.org/1999/02/22-rdf-syntax-ns#"
   xmlns:svg="http://www.w3.org/2000/svg"
   xmlns="http://www.w3.org/2000/svg"
   xmlns:sodipodi="http://sodipodi.sourceforge.net/DTD/sodipodi-0.dtd"
   xmlns:inkscape="http://www.inkscape.org/namespaces/inkscape"
   width="64"
   height="64"
   id="svg13094"
   version="1.1"
   inkscape:version="0.91+devel r"
   sodipodi:docname="system-suspend.svg">
  <sodipodi:namedview
     id="base"
     pagecolor="#ffffff"
     bordercolor="#666666"
     borderopacity="1.0"
     inkscape:pageopacity="0"
     inkscape:pageshadow="2"
     inkscape:zoom="8.0000005"
     inkscape:cx="-13.278708"
     inkscape:cy="30.601955"
     inkscape:document-units="px"
     inkscape:current-layer="svg13094"
     showgrid="true"
     inkscape:snap-bbox="true"
     inkscape:bbox-paths="true"
     inkscape:bbox-nodes="true"
     inkscape:snap-bbox-edge-midpoints="true"
     inkscape:snap-bbox-midpoints="true"
     inkscape:object-paths="true"
     inkscape:snap-intersection-paths="true"
     inkscape:object-nodes="true"
     inkscape:snap-smooth-nodes="true"
     inkscape:snap-midpoints="true"
     inkscape:snap-object-midpoints="true"
     inkscape:snap-center="true"
     showguides="true"
     inkscape:guide-bbox="true"
     inkscape:window-width="1920"
     inkscape:window-height="1023"
     inkscape:window-x="-10"
     inkscape:window-y="35"
     inkscape:window-maximized="1"
     inkscape:snap-global="true"
     fit-margin-top="0"
     fit-margin-left="0"
     fit-margin-right="0"
     fit-margin-bottom="0"
     showborder="true"
     inkscape:showpageshadow="false"
     inkscape:snap-page="true">
    <inkscape:grid
       type="xygrid"
       id="grid3075"
       empspacing="5"
       visible="true"
       enabled="true"
       snapvisiblegridlinesonly="true"
       originx="1.6362304e-08px"
       originy="18px" />
  </sodipodi:namedview>
  <defs
     id="defs13096" />
  <metadata
     id="metadata13099">
    <rdf:RDF>
      <cc:Work
         rdf:about="">
        <dc:format>image/svg+xml</dc:format>
        <dc:type
           rdf:resource="http://purl.org/dc/dcmitype/StillImage" />
        <dc:title></dc:title>
      </cc:Work>
    </rdf:RDF>
  </metadata>
  <path
     id="path4169"
     d="m 0,4 0,30 0,28 2,2 30,0 30,0 2,-2 L 64,34 64,4 32,4 0,4 Z"
     style="color:#000000;display:inline;overflow:visible;visibility:visible;fill:#55a622;fill-opacity:1;fill-rule:nonzero;stroke:none;stroke-width:2.28571415;marker:none;enable-background:accumulate"
     inkscape:connector-curvature="0" />
  <path
     style="color:#000000;display:inline;overflow:visible;visibility:visible;fill:#5db625;fill-opacity:1;fill-rule:nonzero;stroke:none;stroke-width:2.34215999;marker:none;enable-background:accumulate"
     d="M 0,1 0,32.5 0,61.9 2,64 32,64 62,64 64,61.9 64,32.5 64,1 32,1 0,1 Z"
     id="path3056"
     inkscape:connector-curvature="0" />
  <path
     id="path3872"
     d="M 2,0 0,1 0,4 32,4 64,4 64,1 62,0 32,0 2,0 Z"
     style="color:#000000;display:inline;overflow:visible;visibility:visible;fill:#83ff26;fill-opacity:1;fill-rule:nonzero;stroke:none;stroke-width:2.28571415;marker:none;enable-background:accumulate"
     inkscape:connector-curvature="0" />
  <path
     d="M 64,6 62,4 64,3 Z"
     id="path3028"
     style="fill:#68cb24;fill-opacity:1"
     inkscape:connector-curvature="0" />
  <g
     id="g3043"
     inkscape:export-filename="folder.png"
     inkscape:export-xdpi="90"
     inkscape:export-ydpi="90"
     transform="translate(-0.625,0.082283)" />
  <g
     id="scalable"
     transform="matrix(1.0385892,0,0,1.0385892,1214.7222,1878.8121)"
     inkscape:label="#g3701"
     style="fill:#ffffff" />
  <path
     style="fill:#acff59;fill-opacity:1;fill-rule:nonzero"
     d="M 0,3 0,6 2,4 Z"
     id="path4298"
     inkscape:connector-curvature="0"
     sodipodi:nodetypes="cccc" />
  <path
     inkscape:connector-curvature="0"
     style="fill:#e9f8d4;fill-opacity:1;fill-rule:nonzero;stroke:none;opacity:1;stroke-width:1;stroke-linecap:butt;stroke-linejoin:miter;stroke-miterlimit:4;stroke-dasharray:none;stroke-dashoffset:0;stroke-opacity:1;marker:none"
     d="m 32,17 c -6.717164,0 -12.440522,4.132998 -14.8125,10 l 4.4375,0 c 2.074874,-3.586742 5.933356,-6 10.375,-6 4.441644,0 8.300126,2.413258 10.375,6 l 4.4375,0 C 44.440522,21.132998 38.717164,17 32,17 z m -16,14 0,4 32,0 0,-4 -32,0 z m 1.1875,8 C 19.559478,44.867002 25.282836,49 32,49 38.717164,49 44.440522,44.867002 46.8125,39 L 42.375,39 C 40.300126,42.586742 36.441644,45 32,45 27.558356,45 23.699874,42.586742 21.625,39 l -4.4375,0 z"
     id="path2994" />
</svg>

<svg xmlns="http://www.w3.org/2000/svg" viewBox="0 0 64 64"><g color="#000"><path d="m0 4v30 28l2 2h30 30l2-2v-28-30h-32-32" fill="#55a622"/><path d="m0 1v31.5 29.4l2 2.1h30 30l2-2.1v-29.4-31.5h-32-32" fill="#5db625"/><path d="m2 0l-2 1v3h32 32v-3l-2-1h-30-30" fill="#83ff26"/></g><path d="m64 6l-2-2 2-1" fill="#68cb24"/><path d="m0 3v3l2-2" fill="#acff59"/><path d="m32 17c-6.717 0-12.441 4.133-14.813 10h4.438c2.075-3.587 5.933-6 10.375-6 4.442 0 8.3 2.413 10.375 6h4.438c-2.372-5.867-8.095-10-14.813-10m-16 14v4h32v-4h-32m1.188 8c2.372 5.867 8.095 10 14.813 10 6.717 0 12.441-4.133 14.813-10h-4.438c-2.075 3.587-5.933 6-10.375 6-4.442 0-8.3-2.413-10.375-6h-4.438" fill="#e9f8d4"/></svg>
